X:382
T:Jenny Nettles. RH.382
R:reel
S:Rev.R.Harrison’s MS,c1815,Cumbria
O:England
A:Temple Sowerby,Cumbria
Z:vmp.Simon Wilson. Review PJH, 2008.
M:C
L:1/8
Q:2/4=90
K:Em
c2B2 A2a2|efge dBGB|c2B2 A2a2|gefd e2A2:|!
|:cdec cdec|dBGd BGdB|cdeg cdea|gefd e2A2:|!
|:cdef gag>e|gag>e dBGB|cdef gage|ea^gb a2A2:|

